projects/js-packages/social-logos/src/svg/amazon.svg

<svg enable-background="new 0 0 24 24" viewBox="0 0 24 24" xmlns="http://www.w3.org/2000/svg"><path d="m13.582 8.182c-1.648.185-3.802.308-5.344.984-1.781.769-3.03 2.337-3.03 4.644 0 2.953 1.86 4.429 4.253 4.429 2.02 0 3.125-.477 4.685-2.065.516.747.685 1.109 1.629 1.894.212.114.483.103.672-.066l.006.006c.567-.505 1.599-1.401 2.18-1.888.231-.188.19-.496.009-.754-.52-.718-1.072-1.303-1.072-2.634v-4.427c0-1.876.133-3.599-1.249-4.891-1.091-1.045-2.899-1.414-4.281-1.414-2.704 0-5.722 1.01-6.354 4.351-.068.355.191.542.423.594l2.754.298c.258-.013.445-.266.494-.523.236-1.151 1.2-1.706 2.284-1.706.584 0 1.249.215 1.595.738.398.584.346 1.384.346 2.061zm-.533 5.906c-.451.8-1.169 1.291-1.967 1.291-1.09 0-1.728-.83-1.728-2.061 0-2.42 2.171-2.86 4.227-2.86v.615c.001 1.108.027 2.031-.532 3.015zm7.634 5.251c-2.354 1.737-5.766 2.661-8.704 2.661-4.118 0-7.826-1.522-10.632-4.057-.22-.199-.024-.471.241-.317 3.027 1.762 6.771 2.823 10.639 2.823 2.608 0 5.476-.541 8.115-1.66.397-.169.73.262.341.55zm.653 1.704c-.194.163-.379.076-.293-.139.284-.71.92-2.298.619-2.684s-1.99-.183-2.749-.092c-.23.027-.266-.173-.059-.319 1.348-.946 3.555-.673 3.811-.356.26.32-.066 2.533-1.329 3.59z" fill="#010101"/></svg>

<?xml version="1.0" encoding="iso-8859-1"?>
<!-- Generator: Adobe Illustrator 19.2.1, SVG Export Plug-In . SVG Version: 6.00 Build 0)  -->
<svg version="1.1" xmlns="http://www.w3.org/2000/svg" xmlns:xlink="http://www.w3.org/1999/xlink" x="0px" y="0px"
	 viewBox="0 0 24 24" style="enable-background:new 0 0 24 24;" xml:space="preserve">
<g id="amazon">
	<path style="fill:#010101;" d="M13.582,8.182C11.934,8.367,9.78,8.49,8.238,9.166c-1.781,0.769-3.03,2.337-3.03,4.644
		c0,2.953,1.86,4.429,4.253,4.429c2.02,0,3.125-0.477,4.685-2.065c0.516,0.747,0.685,1.109,1.629,1.894
		c0.212,0.114,0.483,0.103,0.672-0.066l0.006,0.006c0.567-0.505,1.599-1.401,2.18-1.888c0.231-0.188,0.19-0.496,0.009-0.754
		c-0.52-0.718-1.072-1.303-1.072-2.634V8.305c0-1.876,0.133-3.599-1.249-4.891C15.23,2.369,13.422,2,12.04,2
		C9.336,2,6.318,3.01,5.686,6.351C5.618,6.706,5.877,6.893,6.109,6.945l2.754,0.298C9.121,7.23,9.308,6.977,9.357,6.72
		c0.236-1.151,1.2-1.706,2.284-1.706c0.584,0,1.249,0.215,1.595,0.738c0.398,0.584,0.346,1.384,0.346,2.061V8.182z M13.049,14.088
		c-0.451,0.8-1.169,1.291-1.967,1.291c-1.09,0-1.728-0.83-1.728-2.061c0-2.42,2.171-2.86,4.227-2.86v0.615
		C13.582,12.181,13.608,13.104,13.049,14.088z M20.683,19.339C18.329,21.076,14.917,22,11.979,22c-4.118,0-7.826-1.522-10.632-4.057
		c-0.22-0.199-0.024-0.471,0.241-0.317c3.027,1.762,6.771,2.823,10.639,2.823c2.608,0,5.476-0.541,8.115-1.66
		C20.739,18.62,21.072,19.051,20.683,19.339z M21.336,21.043c-0.194,0.163-0.379,0.076-0.293-0.139
		c0.284-0.71,0.92-2.298,0.619-2.684c-0.301-0.386-1.99-0.183-2.749-0.092c-0.23,0.027-0.266-0.173-0.059-0.319
		c1.348-0.946,3.555-0.673,3.811-0.356C22.925,17.773,22.599,19.986,21.336,21.043z"/>
</g>
<g id="Layer_1">
</g>
</svg>
